X: 3
T: Lovat's Scouts Quickstep March
T: Meenotogues Lad, The
T: Mick Duggan's Slide
M: 12/8
L: 1/8
R: march / jig / slide
K: Amaj
|: EFG |\
A2 c e2c d2 f agf | e2 c cBA B2 c dcB |
A2 c e2 c d2 f a2 f | efe dcB A3 :|
|: ee/f/g |\
aba agf g3 g2 e | fd/e/f agf e3 ecB | 
A2 c e2 c dcd agf | efe dcB A3 :|
